X: 1
T:Larid  Roger
Z:Roger Ngaret (Septembre 2000)
R:
C:Trad.
S:
A:Bretagne
M:4/4
L:1/8
K:C
%%rm
e2 ea gf e2 | ce gf ef e2 | e2 ea gf e2 |1
ce gf ed A2 :|2  cd ed cB A2 |:
c2 cB cd e2 | (3cde gf ed ee | c2 cB cd e2 | (3Bcd ed cB A2 :|
